; G-Code generated by Simplify3D(R) Version 3.0.2
; Oct 6, 2015 at 12:56:54 PM
; Settings Summary
;   processName,Process1
;   applyToModels,Knobs,Knobs(2)
;   profileName,PrinterBot Simple Metal Custom (modified)
;   profileVersion,2015-05-01 08:00:00
;   baseProfile,Default (modified)
;   printMaterial,PLA
;   printQuality,Medium
;   printExtruders,
;   extruderName,Primary Extruder
;   extruderToolheadNumber,0
;   extruderDiameter,0.4
;   extruderAutoWidth,0
;   extruderWidth,0.4
;   extrusionMultiplier,1
;   extruderUseRetract,1
;   extruderRetractionDistance,1.5
;   extruderExtraRestartDistance,0.1
;   extruderRetractionZLift,0
;   extruderRetractionSpeed,1800
;   extruderUseCoasting,0
;   extruderCoastingDistance,0.2
;   extruderUseWipe,0
;   extruderWipeDistance,5
;   primaryExtruder,0
;   layerHeight,0.2
;   topSolidLayers,3
;   bottomSolidLayers,3
;   perimeterOutlines,2
;   printPerimetersInsideOut,1
;   startPointOption,2
;   startPointOriginX,0
;   startPointOriginY,0
;   startPointOriginZ,300
;   sequentialIslands,0
;   spiralVaseMode,0
;   firstLayerHeightPercentage,60
;   firstLayerWidthPercentage,100
;   firstLayerUnderspeed,0.5
;   useRaft,0
;   raftExtruder,0
;   raftLayers,3
;   raftOffset,3
;   raftSeparationDistance,0.14
;   raftInfill,85
;   disableRaftBaseLayers,0
;   useSkirt,1
;   skirtExtruder,0
;   skirtLayers,1
;   skirtOutlines,5
;   skirtOffset,4
;   usePrimePillar,0
;   primePillarExtruder,999
;   primePillarWidth,12
;   primePillarLocation,7
;   primePillarSpeedMultiplier,1
;   useOozeShield,0
;   oozeShieldExtruder,999
;   oozeShieldOffset,2
;   oozeShieldOutlines,1
;   oozeShieldSidewallShape,1
;   oozeShieldSidewallAngle,30
;   oozeShieldSpeedMultiplier,1
;   infillExtruder,0
;   internalInfillPattern,Rectilinear
;   externalInfillPattern,Rectilinear
;   infillPercentage,20
;   outlineOverlapPercentage,15
;   infillExtrusionWidthPercentage,100
;   minInfillLength,5
;   infillLayerInterval,1
;   infillAngles,45,-45
;   overlapInfillAngles,0
;   generateSupport,0
;   supportExtruder,0
;   supportInfillPercentage,30
;   supportExtraInflation,0.4
;   denseSupportLayers,0
;   denseSupportInfillPercentage,70
;   supportLayerInterval,1
;   supportHorizontalPartOffset,0.3
;   supportUpperSeparationLayers,1
;   supportLowerSeparationLayers,1
;   supportType,0
;   supportGridSpacing,4
;   maxOverhangAngle,45
;   supportAngles,0
;   temperatureName,Primary Extruder,Heated Bed
;   temperatureNumber,0,1
;   temperatureSetpointCount,2,3
;   temperatureSetpointLayers,1,2,1,2,3
;   temperatureSetpointTemperatures,210,200,70,65,63
;   temperatureStabilizeAtStartup,1,1
;   temperatureHeatedBed,0,1
;   temperatureRelayBetweenLayers,0,0
;   temperatureRelayBetweenLoops,0,0
;   fanLayers,1,2,3
;   fanSpeeds,0,0,100
;   blipFanToFullPower,1
;   adjustSpeedForCooling,1
;   minSpeedLayerTime,15
;   minCoolingSpeedSlowdown,20
;   increaseFanForCooling,0
;   minFanLayerTime,45
;   maxCoolingFanSpeed,100
;   increaseFanForBridging,0
;   bridgingFanSpeed,100
;   use5D,1
;   relativeEdistances,0
;   allowEaxisZeroing,1
;   independentExtruderAxes,0
;   includeM10123,0
;   stickySupport,1
;   applyToolheadOffsets,0
;   gcodeXoffset,0
;   gcodeYoffset,0
;   gcodeZoffset,0
;   overrideMachineDefinition,1
;   machineTypeOverride,0
;   strokeXoverride,150
;   strokeYoverride,150
;   strokeZoverride,150
;   originOffsetXoverride,0
;   originOffsetYoverride,0
;   originOffsetZoverride,0
;   homeXdirOverride,-1
;   homeYdirOverride,-1
;   homeZdirOverride,-1
;   flipXoverride,1
;   flipYoverride,-1
;   flipZoverride,1
;   toolheadOffsets,0,0|0,0|0,0|0,0|0,0|0,0
;   overrideFirmwareConfiguration,1
;   firmwareTypeOverride,RepRap (Marlin/Repetier/Sprinter)
;   GPXconfigOverride,r2
;   baudRateOverride,250000
;   overridePrinterModels,1
;   printerModelsOverride
;   startingGcode,G28 X0 Y0 ; home X and Y axes,G29 ; probe z,M201 X1000 Y1000 ; acceleration settings
;   layerChangeGcode,
;   retractionGcode,
;   toolChangeGcode,
;   endingGcode,M104 S0 T0 ; turn off extruder,M140 S0 T1 ; turn off bed,G28 X0 Y0 ; home,M84 ; disable motors
;   createX3G,0
;   celebration,0
;   celebrationSong,Random Song
;   createMB5G,0
;   postProcessing,
;   defaultSpeed,2700
;   outlineUnderspeed,0.8
;   solidInfillUnderspeed,0.8
;   supportUnderspeed,0.8
;   rapidXYspeed,4200
;   rapidZspeed,1002
;   minBridgingArea,50
;   bridgingExtraInflation,0
;   bridgingExtrusionMultiplier,1
;   bridgingSpeedMultiplier,0.8
;   filamentDiameter,1.74
;   filamentPricePerKg,22
;   filamentDensity,1.25
;   useMinPrintHeight,0
;   minPrintHeight,0
;   useMaxPrintHeight,0
;   maxPrintHeight,0
;   useDiaphragm,0
;   diaphragmLayerInterval,20
;   robustSlicing,1
;   mergeAllIntoSolid,0
;   onlyRetractWhenCrossingOutline,1
;   retractBetweenLayers,1
;   useRetractionMinTravel,0
;   retractionMinTravel,3
;   retractWhileWiping,0
;   onlyWipeOutlines,1
;   avoidCrossingOutline,0
;   maxMovementDetourFactor,3
;   toolChangeRetractionDistance,12
;   toolChangeExtraRestartDistance,-0.5
;   toolChangeRetractionSpeed,600
;   allowThinWallGapFill,1
;   thinWallAllowedOverlapPercentage,10
;   horizontalSizeCompensation,0
G90
M82
M106 S0
M140 S70
M190 S70
M104 S210 T0
M109 S210 T0
G28 X0 Y0 ; home X and Y axes
G29 ; probe z
M201 X1000 Y1000 ; acceleration settings
G92 E0
G1 E-1.5000 F1800
G1 Z0.120 F1002
; layer 1, Z = 0.12
T0
; tool H0.200 W0.400
; skirt
G1 X15.445 Y15.748 F4200
G1 E0.1000 F540
G92 E0
G1 X15.672 Y15.521 E0.0108 F1350
G1 X15.715 Y15.481 E0.0128
G1 X16.546 Y14.752 E0.0500
G1 X16.592 Y14.715 E0.0520
G1 X16.846 Y14.520 E0.0627
G1 X16.894 Y14.485 E0.0647
G1 X17.814 Y13.872 E0.1019
G1 X17.864 Y13.840 E0.1039
G1 X18.142 Y13.680 E0.1147
G1 X18.194 Y13.652 E0.1167
G1 X19.186 Y13.164 E0.1539
G1 X19.239 Y13.140 E0.1559
G1 X19.536 Y13.017 E0.1666
G1 X19.591 Y12.996 E0.1686
G1 X20.638 Y12.642 E0.2058
G1 X20.694 Y12.624 E0.2078
G1 X21.004 Y12.542 E0.2186
G1 X21.062 Y12.528 E0.2206
G1 X22.146 Y12.313 E0.2578
G1 X22.204 Y12.304 E0.2598
G1 X22.523 Y12.262 E0.2706
G1 X22.581 Y12.256 E0.2725
G1 X23.684 Y12.184 E0.3097
G1 X23.743 Y12.183 E0.3117
G1 X24.064 Y12.183 E0.3225
G1 X24.123 Y12.185 E0.3245
G1 X25.226 Y12.258 E0.3617
G1 X25.285 Y12.263 E0.3637
G1 X25.603 Y12.305 E0.3745
G1 X25.661 Y12.315 E0.3764
G1 X26.745 Y12.531 E0.4136
G1 X26.803 Y12.545 E0.4156
G1 X27.112 Y12.628 E0.4264
G1 X27.169 Y12.645 E0.4284
G1 X28.216 Y13.001 E0.4656
G1 X28.271 Y13.022 E0.4676
G1 X28.567 Y13.145 E0.4784
G1 X28.621 Y13.169 E0.4804
G1 X29.612 Y13.659 E0.5176
G1 X29.664 Y13.686 E0.5195
G1 X29.942 Y13.847 E0.5303
G1 X29.992 Y13.878 E0.5323
G1 X30.911 Y14.493 E0.5695
G1 X30.958 Y14.527 E0.5715
G1 X31.213 Y14.723 E0.5823
G1 X31.258 Y14.760 E0.5843
G1 X32.089 Y15.489 E0.6214
G1 X32.131 Y15.529 E0.6234
G1 X32.357 Y15.755 E0.6342
G1 X32.397 Y15.798 E0.6361
G1 X32.897 Y16.368 E0.6616
G1 X33.404 Y15.791 E0.6875
G1 X33.445 Y15.748 E0.6895
G1 X33.672 Y15.521 E0.7003
G1 X33.715 Y15.481 E0.7023
G1 X34.546 Y14.752 E0.7394
G1 X34.592 Y14.715 E0.7414
G1 X34.846 Y14.520 E0.7522
G1 X34.894 Y14.485 E0.7542
G1 X35.814 Y13.872 E0.7914
G1 X35.864 Y13.840 E0.7934
G1 X36.142 Y13.680 E0.8042
G1 X36.194 Y13.652 E0.8062
G1 X37.186 Y13.164 E0.8434
G1 X37.239 Y13.140 E0.8453
G1 X37.536 Y13.017 E0.8561
G1 X37.591 Y12.996 E0.8581
G1 X38.638 Y12.642 E0.8953
G1 X38.694 Y12.624 E0.8973
G1 X39.004 Y12.542 E0.9081
G1 X39.062 Y12.528 E0.9101
G1 X40.146 Y12.313 E0.9473
G1 X40.204 Y12.304 E0.9492
G1 X40.522 Y12.262 E0.9600
G1 X40.581 Y12.256 E0.9620
G1 X41.684 Y12.184 E0.9992
G1 X41.743 Y12.183 E1.0012
G1 X42.064 Y12.183 E1.0120
G1 X42.123 Y12.185 E1.0140
G1 X43.226 Y12.258 E1.0512
G1 X43.285 Y12.263 E1.0531
G1 X43.603 Y12.305 E1.0639
G1 X43.661 Y12.315 E1.0659
G1 X44.745 Y12.531 E1.1031
G1 X44.803 Y12.545 E1.1051
G1 X45.112 Y12.628 E1.1159
G1 X45.169 Y12.645 E1.1179
G1 X46.216 Y13.001 E1.1551
G1 X46.271 Y13.022 E1.1571
G1 X46.567 Y13.145 E1.1679
G1 X46.621 Y13.169 E1.1698
G1 X47.612 Y13.659 E1.2070
G1 X47.664 Y13.686 E1.2090
G1 X47.942 Y13.847 E1.2198
G1 X47.992 Y13.878 E1.2218
G1 X48.911 Y14.493 E1.2590
G1 X48.958 Y14.527 E1.2610
G1 X49.213 Y14.723 E1.2718
G1 X49.258 Y14.760 E1.2737
G1 X50.089 Y15.489 E1.3109
G1 X50.131 Y15.529 E1.3129
G1 X50.357 Y15.755 E1.3236
G1 X50.397 Y15.798 E1.3256
G1 X51.124 Y16.626 E1.3627
G1 X51.161 Y16.672 E1.3647
G1 X51.357 Y16.926 E1.3755
G1 X51.391 Y16.974 E1.3774
G1 X52.005 Y17.893 E1.4146
G1 X52.036 Y17.944 E1.4166
G1 X52.197 Y18.221 E1.4274
G1 X52.224 Y18.273 E1.4294
G1 X52.714 Y19.265 E1.4666
G1 X52.738 Y19.319 E1.4686
G1 X52.861 Y19.617 E1.4794
G1 X52.882 Y19.672 E1.4814
G1 X53.238 Y20.723 E1.5188
G1 X53.255 Y20.780 E1.5207
G1 X53.338 Y21.090 E1.5315
G1 X53.351 Y21.147 E1.5335
G1 X53.566 Y22.231 E1.5707
G1 X53.576 Y22.289 E1.5727
G1 X53.618 Y22.605 E1.5834
G1 X53.623 Y22.664 E1.5854
G1 X53.695 Y23.764 E1.6225
G1 X53.697 Y23.823 E1.6245
G1 X53.697 Y24.145 E1.6353
G1 X53.695 Y24.204 E1.6373
G1 X53.622 Y25.311 E1.6746
G1 X53.616 Y25.369 E1.6766
G1 X53.575 Y25.686 E1.6873
G1 X53.565 Y25.744 E1.6893
G1 X53.350 Y26.825 E1.7264
G1 X53.337 Y26.882 E1.7284
G1 X53.253 Y27.194 E1.7392
G1 X53.236 Y27.250 E1.7412
G1 X52.879 Y28.300 E1.7785
G1 X52.858 Y28.355 E1.7805
G1 X52.736 Y28.650 E1.7912
G1 X52.712 Y28.703 E1.7932
G1 X52.224 Y29.692 E1.8303
G1 X52.196 Y29.744 E1.8323
G1 X52.035 Y30.023 E1.8431
G1 X52.004 Y30.073 E1.8451
G1 X51.387 Y30.996 E1.8824
G1 X51.353 Y31.044 E1.8844
G1 X51.157 Y31.298 E1.8952
G1 X51.120 Y31.343 E1.8972
G1 X50.390 Y32.174 E1.9344
G1 X50.350 Y32.217 E1.9364
G1 X50.123 Y32.444 E1.9472
G1 X50.080 Y32.484 E1.9491
G1 X49.248 Y33.213 E1.9863
G1 X49.203 Y33.250 E1.9883
G1 X48.948 Y33.445 E1.9991
G1 X48.900 Y33.480 E2.0011
G1 X47.981 Y34.093 E2.0383
G1 X47.931 Y34.124 E2.0403
G1 X47.653 Y34.285 E2.0511
G1 X47.601 Y34.312 E2.0530
G1 X46.609 Y34.801 E2.0902
G1 X46.555 Y34.825 E2.0922
G1 X46.259 Y34.948 E2.1030
G1 X46.204 Y34.968 E2.1050
G1 X45.156 Y35.323 E2.1422
G1 X45.100 Y35.340 E2.1442
G1 X44.790 Y35.423 E2.1550
G1 X44.733 Y35.437 E2.1570
G1 X43.648 Y35.652 E2.1942
G1 X43.590 Y35.661 E2.1961
G1 X43.272 Y35.703 E2.2069
G1 X43.213 Y35.709 E2.2089
G1 X42.110 Y35.780 E2.2461
G1 X42.051 Y35.782 E2.2481
G1 X41.730 Y35.782 E2.2589
G1 X41.672 Y35.780 E2.2609
G1 X40.568 Y35.707 E2.2981
G1 X40.510 Y35.701 E2.3000
G1 X40.192 Y35.659 E2.3108
G1 X40.134 Y35.650 E2.3128
G1 X39.049 Y35.434 E2.3500
G1 X38.992 Y35.420 E2.3520
G1 X38.682 Y35.337 E2.3628
G1 X38.626 Y35.320 E2.3648
G1 X37.579 Y34.964 E2.4020
G1 X37.524 Y34.943 E2.4040
G1 X37.228 Y34.820 E2.4147
G1 X37.174 Y34.796 E2.4167
G1 X36.183 Y34.306 E2.4539
G1 X36.131 Y34.278 E2.4559
G1 X35.853 Y34.118 E2.4667
G1 X35.803 Y34.087 E2.4687
G1 X34.885 Y33.472 E2.5058
G1 X34.837 Y33.438 E2.5078
G1 X34.584 Y33.244 E2.5186
G1 X34.538 Y33.206 E2.5205
G1 X33.710 Y32.480 E2.5576
G1 X33.667 Y32.440 E2.5596
G1 X33.440 Y32.213 E2.5704
G1 X33.400 Y32.170 E2.5724
G1 X32.897 Y31.597 E2.5980
G1 X32.390 Y32.174 E2.6239
G1 X32.350 Y32.217 E2.6258
G1 X32.123 Y32.444 E2.6366
G1 X32.080 Y32.484 E2.6386
G1 X31.248 Y33.213 E2.6758
G1 X31.203 Y33.250 E2.6778
G1 X30.948 Y33.445 E2.6886
G1 X30.900 Y33.480 E2.6906
G1 X29.981 Y34.093 E2.7278
G1 X29.931 Y34.124 E2.7298
G1 X29.653 Y34.285 E2.7405
G1 X29.601 Y34.312 E2.7425
G1 X28.609 Y34.801 E2.7797
G1 X28.555 Y34.825 E2.7817
G1 X28.259 Y34.948 E2.7925
G1 X28.204 Y34.968 E2.7945
G1 X27.156 Y35.323 E2.8317
G1 X27.100 Y35.340 E2.8337
G1 X26.790 Y35.423 E2.8445
G1 X26.733 Y35.437 E2.8464
G1 X25.648 Y35.652 E2.8836
G1 X25.590 Y35.661 E2.8856
G1 X25.272 Y35.703 E2.8964
G1 X25.213 Y35.709 E2.8984
G1 X24.110 Y35.780 E2.9356
G1 X24.051 Y35.782 E2.9376
G1 X23.730 Y35.782 E2.9484
G1 X23.672 Y35.780 E2.9503
G1 X22.568 Y35.707 E2.9875
G1 X22.510 Y35.701 E2.9895
G1 X22.192 Y35.659 E3.0003
G1 X22.134 Y35.650 E3.0023
G1 X21.049 Y35.434 E3.0395
G1 X20.992 Y35.420 E3.0415
G1 X20.682 Y35.337 E3.0523
G1 X20.626 Y35.320 E3.0542
G1 X19.579 Y34.964 E3.0914
G1 X19.524 Y34.943 E3.0934
G1 X19.228 Y34.820 E3.1042
G1 X19.174 Y34.796 E3.1062
G1 X18.183 Y34.306 E3.1434
G1 X18.131 Y34.278 E3.1454
G1 X17.853 Y34.118 E3.1562
G1 X17.803 Y34.087 E3.1582
G1 X16.885 Y33.472 E3.1953
G1 X16.837 Y33.438 E3.1973
G1 X16.583 Y33.244 E3.2081
G1 X16.538 Y33.206 E3.2100
G1 X15.710 Y32.480 E3.2471
G1 X15.667 Y32.440 E3.2491
G1 X15.440 Y32.213 E3.2599
G1 X15.400 Y32.170 E3.2618
G1 X14.671 Y31.339 E3.2990
G1 X14.633 Y31.293 E3.3010
G1 X14.438 Y31.039 E3.3118
G1 X14.404 Y30.991 E3.3138
G1 X13.789 Y30.071 E3.3510
G1 X13.758 Y30.021 E3.3530
G1 X13.598 Y29.744 E3.3638
G1 X13.570 Y29.692 E3.3658
G1 X13.081 Y28.700 E3.4030
G1 X13.057 Y28.646 E3.4049
G1 X12.934 Y28.350 E3.4157
G1 X12.913 Y28.295 E3.4177
G1 X12.558 Y27.248 E3.4549
G1 X12.541 Y27.191 E3.4569
G1 X12.458 Y26.882 E3.4677
G1 X12.444 Y26.824 E3.4697
G1 X12.229 Y25.740 E3.5069
G1 X12.219 Y25.682 E3.5088
G1 X12.177 Y25.364 E3.5196
G1 X12.172 Y25.305 E3.5216
G1 X12.099 Y24.202 E3.5588
G1 X12.097 Y24.143 E3.5608
G1 X12.097 Y23.822 E3.5716
G1 X12.099 Y23.763 E3.5736
G1 X12.172 Y22.659 E3.6108
G1 X12.177 Y22.600 E3.6128
G1 X12.219 Y22.281 E3.6236
G1 X12.229 Y22.223 E3.6256
G1 X12.446 Y21.135 E3.6629
G1 X12.459 Y21.078 E3.6649
G1 X12.542 Y20.769 E3.6756
G1 X12.559 Y20.713 E3.6776
G1 X12.914 Y19.669 E3.7147
G1 X12.934 Y19.614 E3.7167
G1 X13.058 Y19.317 E3.7275
G1 X13.082 Y19.263 E3.7295
G1 X13.573 Y18.268 E3.7668
G1 X13.601 Y18.217 E3.7688
G1 X13.761 Y17.940 E3.7795
G1 X13.792 Y17.890 E3.7815
G1 X14.404 Y16.974 E3.8186
G1 X14.438 Y16.926 E3.8206
G1 X14.635 Y16.670 E3.8314
G1 X14.672 Y16.624 E3.8334
G1 X15.404 Y15.790 E3.8708
G1 X15.445 Y15.748 E3.8727
G1 X15.950 Y15.808 F4200
G92 E0
G1 X15.983 Y15.777 E0.0015 F1350
G1 X16.805 Y15.057 E0.0383
G1 X16.840 Y15.028 E0.0398
G1 X17.084 Y14.841 E0.0502
G1 X17.122 Y14.814 E0.0517
G1 X18.030 Y14.208 E0.0885
G1 X18.069 Y14.184 E0.0900
G1 X18.336 Y14.030 E0.1004
G1 X18.376 Y14.008 E0.1019
G1 X19.356 Y13.526 E0.1387
G1 X19.398 Y13.507 E0.1402
G1 X19.683 Y13.389 E0.1506
G1 X19.725 Y13.373 E0.1521
G1 X20.760 Y13.022 E0.1889
G1 X20.804 Y13.009 E0.1904
G1 X21.101 Y12.930 E0.2008
G1 X21.146 Y12.919 E0.2023
G1 X22.218 Y12.707 E0.2391
G1 X22.263 Y12.699 E0.2406
G1 X22.568 Y12.659 E0.2510
G1 X22.614 Y12.655 E0.2525
G1 X23.704 Y12.584 E0.2893
G1 X23.750 Y12.583 E0.2908
G1 X24.057 Y12.583 E0.3011
G1 X24.103 Y12.584 E0.3027
G1 X25.193 Y12.656 E0.3394
G1 X25.239 Y12.661 E0.3410
G1 X25.544 Y12.701 E0.3513
G1 X25.589 Y12.709 E0.3529
G1 X26.661 Y12.922 E0.3896
G1 X26.705 Y12.933 E0.3912
G1 X27.002 Y13.013 E0.4015
G1 X27.046 Y13.026 E0.4031
G1 X28.081 Y13.378 E0.4398
G1 X28.123 Y13.394 E0.4414
G1 X28.408 Y13.512 E0.4517
G1 X28.449 Y13.531 E0.4533
G1 X29.429 Y14.014 E0.4900
G1 X29.469 Y14.036 E0.4916
G1 X29.736 Y14.190 E0.5019
G1 X29.775 Y14.214 E0.5035
G1 X30.683 Y14.822 E0.5402
G1 X30.720 Y14.848 E0.5418
G1 X30.964 Y15.036 E0.5521
G1 X30.999 Y15.065 E0.5537
G1 X31.820 Y15.785 E0.5904
G1 X31.853 Y15.816 E0.5919
G1 X32.070 Y16.033 E0.6022
G1 X32.101 Y16.067 E0.6038
G1 X32.819 Y16.885 E0.6404
G1 X32.848 Y16.921 E0.6419
G1 X32.897 Y16.985 E0.6447
G1 X32.948 Y16.919 E0.6475
G1 X32.977 Y16.883 E0.6490
G1 X33.701 Y16.059 E0.6859
G1 X33.732 Y16.026 E0.6874
G1 X33.950 Y15.808 E0.6978
G1 X33.983 Y15.777 E0.6993
G1 X34.805 Y15.057 E0.7361
G1 X34.840 Y15.028 E0.7376
G1 X35.085 Y14.841 E0.7480
G1 X35.122 Y14.814 E0.7495
G1 X36.030 Y14.208 E0.7863
G1 X36.069 Y14.184 E0.7878
G1 X36.336 Y14.030 E0.7982
G1 X36.376 Y14.008 E0.7997
G1 X37.356 Y13.526 E0.8365
G1 X37.398 Y13.507 E0.8380
G1 X37.683 Y13.389 E0.8484
G1 X37.725 Y13.373 E0.8499
G1 X38.760 Y13.022 E0.8867
G1 X38.804 Y13.009 E0.8882
G1 X39.101 Y12.930 E0.8986
G1 X39.146 Y12.919 E0.9001
G1 X40.218 Y12.707 E0.9369
G1 X40.263 Y12.699 E0.9384
G1 X40.568 Y12.659 E0.9488
G1 X40.614 Y12.655 E0.9503
G1 X41.704 Y12.584 E0.9871
G1 X41.750 Y12.583 E0.9886
G1 X42.057 Y12.583 E0.9989
G1 X42.103 Y12.584 E1.0005
G1 X43.193 Y12.656 E1.0372
G1 X43.239 Y12.661 E1.0388
G1 X43.544 Y12.701 E1.0491
G1 X43.589 Y12.709 E1.0507
G1 X44.661 Y12.922 E1.0874
G1 X44.705 Y12.933 E1.0890
G1 X45.002 Y13.013 E1.0993
G1 X45.046 Y13.026 E1.1009
