; G-Code generated by Simplify3D(R) Version 3.0.1
; Sep 1, 2015 at 10:31:14 AM
; Settings Summary
;   processName,Process1
;   applyToModels,SparkfunSTA540AmpLid
;   profileName,PrinterBot Simple Metal Custom
;   profileVersion,2015-05-01 08:00:00
;   baseProfile,Default (modified)
;   printMaterial,PLA
;   printQuality,Medium
;   printExtruders,
;   extruderName,Primary Extruder
;   extruderToolheadNumber,0
;   extruderDiameter,0.4
;   extruderAutoWidth,0
;   extruderWidth,0.4
;   extrusionMultiplier,1
;   extruderUseRetract,1
;   extruderRetractionDistance,1
;   extruderExtraRestartDistance,0
;   extruderRetractionZLift,0
;   extruderRetractionSpeed,1800
;   extruderUseCoasting,0
;   extruderCoastingDistance,0.2
;   extruderUseWipe,0
;   extruderWipeDistance,5
;   primaryExtruder,0
;   layerHeight,0.2
;   topSolidLayers,3
;   bottomSolidLayers,3
;   perimeterOutlines,2
;   printPerimetersInsideOut,1
;   startPointOption,2
;   startPointOriginX,0
;   startPointOriginY,0
;   startPointOriginZ,300
;   sequentialIslands,0
;   spiralVaseMode,0
;   firstLayerHeightPercentage,90
;   firstLayerWidthPercentage,100
;   firstLayerUnderspeed,0.5
;   useRaft,0
;   raftExtruder,0
;   raftLayers,3
;   raftOffset,3
;   raftSeparationDistance,0.14
;   raftInfill,85
;   disableRaftBaseLayers,0
;   useSkirt,1
;   skirtExtruder,0
;   skirtLayers,1
;   skirtOutlines,3
;   skirtOffset,4
;   usePrimePillar,0
;   primePillarExtruder,999
;   primePillarWidth,12
;   primePillarLocation,7
;   primePillarSpeedMultiplier,1
;   useOozeShield,0
;   oozeShieldExtruder,999
;   oozeShieldOffset,2
;   oozeShieldOutlines,1
;   oozeShieldSidewallShape,1
;   oozeShieldSidewallAngle,30
;   oozeShieldSpeedMultiplier,1
;   infillExtruder,0
;   internalInfillPattern,Rectilinear
;   externalInfillPattern,Rectilinear
;   infillPercentage,10
;   outlineOverlapPercentage,15
;   infillExtrusionWidthPercentage,100
;   minInfillLength,5
;   infillLayerInterval,1
;   infillAngles,45,-45
;   overlapInfillAngles,0
;   generateSupport,1
;   supportExtruder,0
;   supportInfillPercentage,30
;   supportExtraInflation,0
;   denseSupportLayers,0
;   denseSupportInfillPercentage,70
;   supportLayerInterval,1
;   supportHorizontalPartOffset,0.3
;   supportUpperSeparationLayers,1
;   supportLowerSeparationLayers,1
;   supportType,0
;   supportGridSpacing,4
;   maxOverhangAngle,45
;   supportAngles,0
;   temperatureName,Primary Extruder,Heated Bed
;   temperatureNumber,0,1
;   temperatureSetpointCount,2,3
;   temperatureSetpointLayers,1,2,1,2,3
;   temperatureSetpointTemperatures,210,200,70,65,63
;   temperatureStabilizeAtStartup,1,1
;   temperatureHeatedBed,0,1
;   temperatureRelayBetweenLayers,0,0
;   temperatureRelayBetweenLoops,0,0
;   fanLayers,1,2
;   fanSpeeds,0,100
;   blipFanToFullPower,1
;   adjustSpeedForCooling,1
;   minSpeedLayerTime,15
;   minCoolingSpeedSlowdown,20
;   increaseFanForCooling,0
;   minFanLayerTime,45
;   maxCoolingFanSpeed,100
;   increaseFanForBridging,0
;   bridgingFanSpeed,100
;   use5D,1
;   relativeEdistances,0
;   allowEaxisZeroing,1
;   independentExtruderAxes,0
;   includeM10123,0
;   stickySupport,1
;   applyToolheadOffsets,0
;   gcodeXoffset,0
;   gcodeYoffset,0
;   gcodeZoffset,0
;   overrideMachineDefinition,1
;   machineTypeOverride,0
;   strokeXoverride,150
;   strokeYoverride,150
;   strokeZoverride,150
;   originOffsetXoverride,0
;   originOffsetYoverride,0
;   originOffsetZoverride,0
;   homeXdirOverride,-1
;   homeYdirOverride,-1
;   homeZdirOverride,-1
;   flipXoverride,1
;   flipYoverride,-1
;   flipZoverride,1
;   toolheadOffsets,0,0|0,0|0,0|0,0|0,0|0,0
;   overrideFirmwareConfiguration,1
;   firmwareTypeOverride,RepRap (Marlin/Repetier/Sprinter)
;   GPXconfigOverride,r2
;   baudRateOverride,250000
;   overridePrinterModels,1
;   printerModelsOverride
;   startingGcode,G28 X0 Y0 ; home X and Y axes, G29 ; probe Z
;   layerChangeGcode,
;   retractionGcode,
;   toolChangeGcode,
;   endingGcode,M104 S0 T0 ; turn off extruder,M140 S0 T1 ; turn off bed,G28 X0 ; home X axis,M84 ; disable motors
;   createX3G,0
;   celebration,0
;   celebrationSong,Random Song
;   createMB5G,0
;   postProcessing,
;   defaultSpeed,2700
;   outlineUnderspeed,0.8
;   solidInfillUnderspeed,0.8
;   supportUnderspeed,0.8
;   rapidXYspeed,4200
;   rapidZspeed,1002
;   minBridgingArea,50
;   bridgingExtraInflation,0
;   bridgingExtrusionMultiplier,1
;   bridgingSpeedMultiplier,1
;   filamentDiameter,1.75
;   filamentPricePerKg,22.98
;   filamentDensity,1.25
;   useMinPrintHeight,0
;   minPrintHeight,0
;   useMaxPrintHeight,0
;   maxPrintHeight,0
;   useDiaphragm,0
;   diaphragmLayerInterval,20
;   robustSlicing,1
;   mergeAllIntoSolid,0
;   onlyRetractWhenCrossingOutline,1
;   retractBetweenLayers,1
;   useRetractionMinTravel,0
;   retractionMinTravel,3
;   retractWhileWiping,0
;   onlyWipeOutlines,1
;   avoidCrossingOutline,0
;   maxMovementDetourFactor,3
;   toolChangeRetractionDistance,12
;   toolChangeExtraRestartDistance,-0.5
;   toolChangeRetractionSpeed,600
;   allowThinWallGapFill,1
;   thinWallAllowedOverlapPercentage,10
;   horizontalSizeCompensation,0
G90
M82
M106 S0
M140 S70
M190 S70
M104 S210 T0
M109 S210 T0
G28 X0 Y0 ; home X and Y axes
 G29 ; probe Z
G92 E0
G1 E-1.0000 F1800
G1 Z0.180 F1002
; layer 1, Z = 0.18
T0
; tool H0.200 W0.400
; skirt
G1 X7.624 Y8.684 F4200
G1 E0.0000 F540
G92 E0
G1 X7.674 Y8.641 E0.0022 F1350
G1 X8.987 Y7.633 E0.0572
G1 X9.041 Y7.597 E0.0594
G1 X9.552 Y7.302 E0.0790
G1 X9.611 Y7.273 E0.0812
G1 X11.140 Y6.640 E0.1363
G1 X11.202 Y6.618 E0.1384
G1 X11.772 Y6.466 E0.1581
G1 X11.836 Y6.453 E0.1602
G1 X13.391 Y6.248 E0.2124
G1 X13.423 Y6.245 E0.2135
G1 X13.717 Y6.226 E0.2233
G1 X13.750 Y6.225 E0.2244
G1 X113.926 Y6.225 E3.5562
G1 X113.958 Y6.226 E3.5573
G1 X114.252 Y6.245 E3.5671
G1 X114.285 Y6.248 E3.5682
G1 X115.839 Y6.453 E3.6204
G1 X115.904 Y6.466 E3.6225
G1 X116.473 Y6.618 E3.6421
G1 X116.535 Y6.640 E3.6443
G1 X118.065 Y7.273 E3.6994
G1 X118.124 Y7.302 E3.7016
G1 X118.634 Y7.597 E3.7212
G1 X118.689 Y7.633 E3.7234
G1 X120.002 Y8.641 E3.7784
G1 X120.051 Y8.684 E3.7806
G1 X120.468 Y9.101 E3.8002
G1 X120.512 Y9.151 E3.8024
G1 X121.519 Y10.464 E3.8575
G1 X121.556 Y10.518 E3.8596
G1 X121.851 Y11.029 E3.8792
G1 X121.880 Y11.088 E3.8814
G1 X122.513 Y12.617 E3.9365
G1 X122.534 Y12.679 E3.9387
G1 X122.687 Y13.249 E3.9583
G1 X122.700 Y13.313 E3.9605
G1 X122.904 Y14.868 E4.0126
G1 X122.907 Y14.900 E4.0137
G1 X122.927 Y15.194 E4.0235
G1 X122.928 Y15.227 E4.0246
G1 X122.928 Y85.402 E6.3586
G1 X122.927 Y85.435 E6.3597
G1 X122.907 Y85.729 E6.3695
G1 X122.904 Y85.762 E6.3706
G1 X122.700 Y87.316 E6.4228
G1 X122.687 Y87.381 E6.4249
G1 X122.534 Y87.950 E6.4446
G1 X122.513 Y88.012 E6.4467
G1 X121.880 Y89.542 E6.5018
G1 X121.851 Y89.601 E6.5040
G1 X121.556 Y90.111 E6.5236
G1 X121.519 Y90.166 E6.5258
G1 X120.512 Y91.479 E6.5808
G1 X120.468 Y91.528 E6.5830
G1 X120.051 Y91.945 E6.6026
G1 X120.002 Y91.989 E6.6048
G1 X118.689 Y92.996 E6.6599
G1 X118.634 Y93.033 E6.6620
G1 X118.124 Y93.328 E6.6817
G1 X118.065 Y93.357 E6.6838
G1 X116.535 Y93.990 E6.7389
G1 X116.473 Y94.011 E6.7411
G1 X115.904 Y94.164 E6.7607
G1 X115.839 Y94.177 E6.7629
G1 X114.285 Y94.381 E6.8150
G1 X114.252 Y94.384 E6.8161
G1 X113.958 Y94.404 E6.8259
G1 X113.926 Y94.405 E6.8270
G1 X13.750 Y94.405 E10.1588
G1 X13.717 Y94.404 E10.1599
G1 X13.423 Y94.384 E10.1697
G1 X13.391 Y94.381 E10.1708
G1 X11.836 Y94.177 E10.2230
G1 X11.772 Y94.164 E10.2251
G1 X11.202 Y94.011 E10.2448
G1 X11.140 Y93.990 E10.2469
G1 X9.611 Y93.357 E10.3020
G1 X9.552 Y93.328 E10.3042
G1 X9.041 Y93.033 E10.3238
G1 X8.987 Y92.996 E10.3260
G1 X7.674 Y91.989 E10.3810
G1 X7.624 Y91.945 E10.3832
G1 X7.207 Y91.528 E10.4028
G1 X7.164 Y91.479 E10.4050
G1 X6.156 Y90.166 E10.4601
G1 X6.120 Y90.111 E10.4623
G1 X5.825 Y89.601 E10.4819
G1 X5.796 Y89.542 E10.4840
G1 X5.163 Y88.012 E10.5391
G1 X5.141 Y87.950 E10.5413
G1 X4.989 Y87.381 E10.5609
G1 X4.976 Y87.316 E10.5631
G1 X4.771 Y85.762 E10.6152
G1 X4.768 Y85.729 E10.6163
G1 X4.749 Y85.435 E10.6261
G1 X4.748 Y85.403 E10.6272
G1 X4.748 Y15.227 E12.9613
G1 X4.749 Y15.194 E12.9623
G1 X4.768 Y14.900 E12.9721
G1 X4.771 Y14.868 E12.9732
G1 X4.976 Y13.313 E13.0254
G1 X4.989 Y13.249 E13.0276
G1 X5.141 Y12.679 E13.0472
G1 X5.163 Y12.617 E13.0494
G1 X5.796 Y11.088 E13.1044
G1 X5.825 Y11.029 E13.1066
G1 X6.120 Y10.518 E13.1262
G1 X6.156 Y10.464 E13.1284
G1 X7.164 Y9.151 E13.1834
G1 X7.207 Y9.101 E13.1856
G1 X7.624 Y8.684 E13.2052
G1 X7.898 Y8.976 F4200
G92 E0
G1 X7.927 Y8.950 E0.0013 F1350
G1 X9.220 Y7.959 E0.0555
G1 X9.253 Y7.937 E0.0568
G1 X9.741 Y7.655 E0.0755
G1 X9.776 Y7.638 E0.0769
G1 X11.281 Y7.014 E0.1310
G1 X11.318 Y7.001 E0.1324
G1 X11.863 Y6.856 E0.1511
G1 X11.901 Y6.848 E0.1524
G1 X13.437 Y6.646 E0.2039
G1 X13.456 Y6.644 E0.2046
G1 X13.737 Y6.625 E0.2139
G1 X13.757 Y6.625 E0.2146
G1 X113.919 Y6.625 E3.5460
G1 X113.939 Y6.625 E3.5466
G1 X114.220 Y6.644 E3.5560
G1 X114.239 Y6.646 E3.5567
G1 X115.774 Y6.848 E3.6082
G1 X115.813 Y6.856 E3.6095
G1 X116.357 Y7.001 E3.6282
G1 X116.394 Y7.014 E3.6295
G1 X117.900 Y7.638 E3.6837
G1 X117.935 Y7.655 E3.6850
G1 X118.423 Y7.937 E3.7038
G1 X118.456 Y7.959 E3.7051
G1 X119.748 Y8.950 E3.7593
G1 X119.778 Y8.976 E3.7606
G1 X120.176 Y9.375 E3.7793
G1 X120.202 Y9.404 E3.7806
G1 X121.194 Y10.697 E3.8348
G1 X121.216 Y10.730 E3.8361
G1 X121.498 Y11.218 E3.8549
G1 X121.515 Y11.253 E3.8562
G1 X122.139 Y12.758 E3.9104
G1 X122.151 Y12.796 E3.9117
G1 X122.297 Y13.340 E3.9304
G1 X122.305 Y13.378 E3.9317
G1 X122.507 Y14.914 E3.9832
G1 X122.509 Y14.933 E3.9839
G1 X122.527 Y15.214 E3.9932
G1 X122.528 Y15.234 E3.9939
G1 X122.528 Y85.396 E6.3275
G1 X122.527 Y85.416 E6.3281
G1 X122.509 Y85.696 E6.3375
G1 X122.507 Y85.716 E6.3382
G1 X122.305 Y87.251 E6.3897
G1 X122.297 Y87.290 E6.3910
G1 X122.151 Y87.834 E6.4097
G1 X122.139 Y87.871 E6.4110
G1 X121.515 Y89.377 E6.4652
G1 X121.498 Y89.412 E6.4665
G1 X121.216 Y89.900 E6.4853
G1 X121.194 Y89.933 E6.4866
G1 X120.202 Y91.225 E6.5408
G1 X120.176 Y91.255 E6.5421
G1 X119.778 Y91.653 E6.5608
G1 X119.748 Y91.679 E6.5621
G1 X118.456 Y92.671 E6.6163
G1 X118.423 Y92.693 E6.6176
G1 X117.935 Y92.975 E6.6364
G1 X117.900 Y92.992 E6.6377
G1 X116.394 Y93.616 E6.6919
G1 X116.357 Y93.628 E6.6932
G1 X115.813 Y93.774 E6.7119
G1 X115.774 Y93.782 E6.7132
G1 X114.239 Y93.984 E6.7647
G1 X114.220 Y93.986 E6.7654
G1 X113.939 Y94.004 E6.7747
G1 X113.919 Y94.005 E6.7754
G1 X13.757 Y94.005 E10.1068
G1 X13.737 Y94.004 E10.1075
G1 X13.456 Y93.986 E10.1168
G1 X13.437 Y93.984 E10.1175
G1 X11.901 Y93.782 E10.1690
G1 X11.863 Y93.774 E10.1703
G1 X11.319 Y93.628 E10.1890
G1 X11.281 Y93.616 E10.1903
G1 X9.776 Y92.992 E10.2445
G1 X9.741 Y92.975 E10.2458
G1 X9.253 Y92.693 E10.2646
G1 X9.220 Y92.671 E10.2659
G1 X7.927 Y91.679 E10.3201
G1 X7.898 Y91.653 E10.3214
G1 X7.499 Y91.255 E10.3401
G1 X7.473 Y91.225 E10.3414
G1 X6.482 Y89.933 E10.3956
G1 X6.460 Y89.900 E10.3969
G1 X6.178 Y89.412 E10.4157
G1 X6.161 Y89.377 E10.4170
G1 X5.537 Y87.871 E10.4712
G1 X5.524 Y87.834 E10.4725
G1 X5.379 Y87.290 E10.4912
G1 X5.371 Y87.251 E10.4925
G1 X5.169 Y85.716 E10.5440
G1 X5.167 Y85.697 E10.5447
G1 X5.148 Y85.416 E10.5540
G1 X5.148 Y85.396 E10.5547
G1 X5.148 Y15.234 E12.8883
G1 X5.148 Y15.214 E12.8890
G1 X5.167 Y14.933 E12.8983
G1 X5.169 Y14.914 E12.8990
G1 X5.371 Y13.378 E12.9505
G1 X5.379 Y13.340 E12.9518
G1 X5.524 Y12.796 E12.9705
G1 X5.537 Y12.758 E12.9718
G1 X6.161 Y11.253 E13.0260
G1 X6.178 Y11.218 E13.0273
G1 X6.460 Y10.730 E13.0461
G1 X6.482 Y10.697 E13.0474
G1 X7.473 Y9.404 E13.1016
G1 X7.499 Y9.375 E13.1029
G1 X7.898 Y8.976 E13.1216
G1 X8.172 Y9.268 F4200
G92 E0
G1 X8.181 Y9.260 E0.0004 F1350
G1 X9.453 Y8.284 E0.0538
G1 X9.464 Y8.277 E0.0542
G1 X9.929 Y8.008 E0.0721
G1 X9.941 Y8.002 E0.0725
G1 X11.422 Y7.389 E0.1258
G1 X11.435 Y7.384 E0.1263
G1 X11.954 Y7.245 E0.1441
G1 X11.967 Y7.243 E0.1446
G1 X13.482 Y7.043 E0.1954
G1 X13.489 Y7.043 E0.1956
G1 X13.757 Y7.025 E0.2046
G1 X13.763 Y7.025 E0.2048
G1 X113.912 Y7.025 E3.5358
G1 X113.919 Y7.025 E3.5360
G1 X114.187 Y7.043 E3.5449
G1 X114.193 Y7.043 E3.5451
G1 X115.709 Y7.243 E3.5960
G1 X115.722 Y7.245 E3.5964
G1 X116.241 Y7.384 E3.6143
G1 X116.253 Y7.389 E3.6147
G1 X117.734 Y8.002 E3.6680
G1 X117.746 Y8.008 E3.6685
G1 X118.212 Y8.277 E3.6863
G1 X118.222 Y8.284 E3.6868
G1 X119.494 Y9.260 E3.7401
G1 X119.504 Y9.268 E3.7405
G1 X119.884 Y9.648 E3.7584
G1 X119.893 Y9.658 E3.7588
G1 X120.869 Y10.930 E3.8122
G1 X120.876 Y10.941 E3.8126
G1 X121.145 Y11.406 E3.8305
G1 X121.151 Y11.418 E3.8309
G1 X121.764 Y12.899 E3.8842
G1 X121.768 Y12.912 E3.8847
G1 X121.907 Y13.431 E3.9025
G1 X121.910 Y13.444 E3.9030
G1 X122.109 Y14.959 E3.9538
G1 X122.110 Y14.966 E3.9540
G1 X122.128 Y15.234 E3.9630
G1 X122.128 Y15.240 E3.9632
G1 X122.128 Y85.389 E6.2964
G1 X122.128 Y85.396 E6.2966
G1 X122.110 Y85.664 E6.3055
G1 X122.109 Y85.670 E6.3057
G1 X121.910 Y87.186 E6.3566
G1 X121.907 Y87.199 E6.3570
G1 X121.768 Y87.718 E6.3749
G1 X121.764 Y87.730 E6.3753
G1 X121.151 Y89.211 E6.4286
G1 X121.145 Y89.223 E6.4291
G1 X120.876 Y89.689 E6.4469
G1 X120.869 Y89.699 E6.4474
G1 X119.893 Y90.971 E6.5007
G1 X119.884 Y90.981 E6.5011
G1 X119.504 Y91.361 E6.5190
G1 X119.494 Y91.370 E6.5194
G1 X118.222 Y92.346 E6.5728
G1 X118.212 Y92.353 E6.5732
G1 X117.746 Y92.622 E6.5911
G1 X117.734 Y92.628 E6.5915
G1 X116.253 Y93.241 E6.6448
G1 X116.241 Y93.245 E6.6453
G1 X115.722 Y93.384 E6.6631
G1 X115.709 Y93.387 E6.6636
G1 X114.193 Y93.586 E6.7144
G1 X114.187 Y93.587 E6.7146
G1 X113.919 Y93.605 E6.7236
G1 X113.912 Y93.605 E6.7238
G1 X13.763 Y93.605 E10.0548
G1 X13.757 Y93.605 E10.0550
G1 X13.489 Y93.587 E10.0639
G1 X13.482 Y93.586 E10.0641
G1 X11.967 Y93.387 E10.1150
G1 X11.954 Y93.384 E10.1154
G1 X11.435 Y93.245 E10.1333
G1 X11.422 Y93.241 E10.1337
G1 X9.941 Y92.628 E10.1870
G1 X9.929 Y92.622 E10.1875
G1 X9.464 Y92.353 E10.2053
G1 X9.453 Y92.346 E10.2058
G1 X8.181 Y91.370 E10.2591
G1 X8.172 Y91.361 E10.2595
G1 X7.791 Y90.981 E10.2774
G1 X7.783 Y90.971 E10.2778
G1 X6.807 Y89.699 E10.3312
G1 X6.800 Y89.689 E10.3316
G1 X6.531 Y89.223 E10.3495
G1 X6.525 Y89.211 E10.3499
G1 X5.912 Y87.730 E10.4032
G1 X5.907 Y87.718 E10.4037
G1 X5.768 Y87.199 E10.4215
G1 X5.766 Y87.186 E10.4220
G1 X5.566 Y85.670 E10.4728
G1 X5.566 Y85.664 E10.4730
G1 X5.548 Y85.396 E10.4820
G1 X5.548 Y85.389 E10.4822
G1 X5.548 Y15.240 E12.8154
G1 X5.548 Y15.234 E12.8156
G1 X5.566 Y14.966 E12.8245
G1 X5.566 Y14.959 E12.8247
G1 X5.766 Y13.444 E12.8756
G1 X5.768 Y13.431 E12.8760
G1 X5.907 Y12.912 E12.8939
G1 X5.912 Y12.899 E12.8943
G1 X6.525 Y11.418 E12.9476
G1 X6.531 Y11.406 E12.9481
G1 X6.800 Y10.941 E12.9659
G1 X6.807 Y10.930 E12.9664
G1 X7.783 Y9.658 E13.0197
G1 X7.791 Y9.648 E13.0201
G1 X8.172 Y9.268 E13.0380
G92 E0
G1 E-1.0000 F1800
; inner perimeter
G1 X15.459 Y11.825 F4200
G1 E0.0000 F1800
G92 E0
G1 X112.217 Y11.825 E3.2182 F1215
G1 X112.268 Y12.082 E3.2269
G1 X112.029 Y12.181 E3.2355
G1 X111.279 Y12.756 E3.2669
G1 X110.704 Y13.506 E3.2983
G1 X110.343 Y14.378 E3.3298
G1 X110.220 Y15.315 E3.3612
G1 X110.343 Y16.251 E3.3926
G1 X110.704 Y17.124 E3.4240
G1 X111.279 Y17.873 E3.4554
G1 X112.029 Y18.448 E3.4868
G1 X112.901 Y18.810 E3.5182
G1 X113.838 Y18.933 E3.5497
G1 X114.774 Y18.810 E3.5811
G1 X115.647 Y18.448 E3.6125
G1 X116.396 Y17.873 E3.6439
G1 X116.971 Y17.124 E3.6753
G1 X117.070 Y16.885 E3.6839
G1 X117.328 Y16.936 E3.6927
G1 X117.328 Y83.688 E5.9128
G1 X117.070 Y83.739 E5.9216
G1 X116.973 Y83.505 E5.9300
G1 X116.398 Y82.755 E5.9615
G1 X115.648 Y82.180 E5.9929
G1 X114.775 Y81.818 E6.0243
G1 X113.838 Y81.695 E6.0558
G1 X112.901 Y81.818 E6.0872
G1 X112.028 Y82.180 E6.1186
G1 X111.278 Y82.755 E6.1501
G1 X110.703 Y83.505 E6.1815
G1 X110.341 Y84.378 E6.2129
G1 X110.218 Y85.315 E6.2444
G1 X110.341 Y86.252 E6.2758
G1 X110.703 Y87.125 E6.3072
G1 X111.278 Y87.875 E6.3387
G1 X112.028 Y88.450 E6.3701
G1 X112.262 Y88.547 E6.3785
G1 X112.211 Y88.805 E6.3873
G1 X15.459 Y88.805 E9.6053
G1 X15.408 Y88.547 E9.6140
G1 X15.647 Y88.448 E9.6226
G1 X16.396 Y87.873 E9.6540
G1 X16.971 Y87.124 E9.6854
G1 X17.333 Y86.251 E9.7169
G1 X17.456 Y85.315 E9.7483
G1 X17.333 Y84.378 E9.7797
G1 X16.971 Y83.506 E9.8111
