; G-Code generated by Simplify3D(R) Version 3.0.1
; Sep 1, 2015 at 12:24:03 PM
; Settings Summary
;   processName,Process1
;   applyToModels,SparkfunSTA540AmpBottom
;   profileName,PrinterBot Simple Metal Custom (modified)
;   profileVersion,2015-05-01 08:00:00
;   baseProfile,Default (modified)
;   printMaterial,PLA
;   printQuality,Medium
;   printExtruders,
;   extruderName,Primary Extruder
;   extruderToolheadNumber,0
;   extruderDiameter,0.4
;   extruderAutoWidth,0
;   extruderWidth,0.4
;   extrusionMultiplier,1
;   extruderUseRetract,1
;   extruderRetractionDistance,1
;   extruderExtraRestartDistance,0
;   extruderRetractionZLift,0
;   extruderRetractionSpeed,1800
;   extruderUseCoasting,0
;   extruderCoastingDistance,0.2
;   extruderUseWipe,0
;   extruderWipeDistance,5
;   primaryExtruder,0
;   layerHeight,0.2
;   topSolidLayers,3
;   bottomSolidLayers,3
;   perimeterOutlines,2
;   printPerimetersInsideOut,1
;   startPointOption,2
;   startPointOriginX,0
;   startPointOriginY,0
;   startPointOriginZ,300
;   sequentialIslands,0
;   spiralVaseMode,0
;   firstLayerHeightPercentage,90
;   firstLayerWidthPercentage,100
;   firstLayerUnderspeed,0.5
;   useRaft,0
;   raftExtruder,0
;   raftLayers,3
;   raftOffset,3
;   raftSeparationDistance,0.14
;   raftInfill,85
;   disableRaftBaseLayers,0
;   useSkirt,1
;   skirtExtruder,0
;   skirtLayers,1
;   skirtOutlines,3
;   skirtOffset,4
;   usePrimePillar,0
;   primePillarExtruder,999
;   primePillarWidth,12
;   primePillarLocation,7
;   primePillarSpeedMultiplier,1
;   useOozeShield,0
;   oozeShieldExtruder,999
;   oozeShieldOffset,2
;   oozeShieldOutlines,1
;   oozeShieldSidewallShape,1
;   oozeShieldSidewallAngle,30
;   oozeShieldSpeedMultiplier,1
;   infillExtruder,0
;   internalInfillPattern,Rectilinear
;   externalInfillPattern,Rectilinear
;   infillPercentage,10
;   outlineOverlapPercentage,15
;   infillExtrusionWidthPercentage,100
;   minInfillLength,5
;   infillLayerInterval,1
;   infillAngles,45,-45
;   overlapInfillAngles,0
;   generateSupport,1
;   supportExtruder,0
;   supportInfillPercentage,30
;   supportExtraInflation,0
;   denseSupportLayers,0
;   denseSupportInfillPercentage,70
;   supportLayerInterval,1
;   supportHorizontalPartOffset,0.3
;   supportUpperSeparationLayers,1
;   supportLowerSeparationLayers,1
;   supportType,0
;   supportGridSpacing,4
;   maxOverhangAngle,45
;   supportAngles,0
;   temperatureName,Primary Extruder,Heated Bed
;   temperatureNumber,0,1
;   temperatureSetpointCount,2,3
;   temperatureSetpointLayers,1,2,1,2,3
;   temperatureSetpointTemperatures,210,200,70,65,63
;   temperatureStabilizeAtStartup,1,1
;   temperatureHeatedBed,0,1
;   temperatureRelayBetweenLayers,0,0
;   temperatureRelayBetweenLoops,0,0
;   fanLayers,1,2
;   fanSpeeds,0,100
;   blipFanToFullPower,1
;   adjustSpeedForCooling,1
;   minSpeedLayerTime,15
;   minCoolingSpeedSlowdown,20
;   increaseFanForCooling,0
;   minFanLayerTime,45
;   maxCoolingFanSpeed,100
;   increaseFanForBridging,0
;   bridgingFanSpeed,100
;   use5D,1
;   relativeEdistances,0
;   allowEaxisZeroing,1
;   independentExtruderAxes,0
;   includeM10123,0
;   stickySupport,1
;   applyToolheadOffsets,0
;   gcodeXoffset,0
;   gcodeYoffset,0
;   gcodeZoffset,0
;   overrideMachineDefinition,1
;   machineTypeOverride,0
;   strokeXoverride,150
;   strokeYoverride,150
;   strokeZoverride,150
;   originOffsetXoverride,0
;   originOffsetYoverride,0
;   originOffsetZoverride,0
;   homeXdirOverride,-1
;   homeYdirOverride,-1
;   homeZdirOverride,-1
;   flipXoverride,1
;   flipYoverride,-1
;   flipZoverride,1
;   toolheadOffsets,0,0|0,0|0,0|0,0|0,0|0,0
;   overrideFirmwareConfiguration,1
;   firmwareTypeOverride,RepRap (Marlin/Repetier/Sprinter)
;   GPXconfigOverride,r2
;   baudRateOverride,250000
;   overridePrinterModels,1
;   printerModelsOverride
;   startingGcode,G28 X0 Y0 ; home X and Y axes, G29 ; probe Z
;   layerChangeGcode,
;   retractionGcode,
;   toolChangeGcode,
;   endingGcode,M104 S0 T0 ; turn off extruder,M140 S0 T1 ; turn off bed,G28 X0 ; home X axis,M84 ; disable motors
;   createX3G,0
;   celebration,0
;   celebrationSong,Random Song
;   createMB5G,0
;   postProcessing,
;   defaultSpeed,2700
;   outlineUnderspeed,0.8
;   solidInfillUnderspeed,0.8
;   supportUnderspeed,0.8
;   rapidXYspeed,4200
;   rapidZspeed,1002
;   minBridgingArea,50
;   bridgingExtraInflation,0
;   bridgingExtrusionMultiplier,1
;   bridgingSpeedMultiplier,1
;   filamentDiameter,1.75
;   filamentPricePerKg,22
;   filamentDensity,1.25
;   useMinPrintHeight,0
;   minPrintHeight,0
;   useMaxPrintHeight,0
;   maxPrintHeight,0
;   useDiaphragm,0
;   diaphragmLayerInterval,20
;   robustSlicing,1
;   mergeAllIntoSolid,0
;   onlyRetractWhenCrossingOutline,1
;   retractBetweenLayers,1
;   useRetractionMinTravel,0
;   retractionMinTravel,3
;   retractWhileWiping,0
;   onlyWipeOutlines,1
;   avoidCrossingOutline,0
;   maxMovementDetourFactor,3
;   toolChangeRetractionDistance,12
;   toolChangeExtraRestartDistance,-0.5
;   toolChangeRetractionSpeed,600
;   allowThinWallGapFill,1
;   thinWallAllowedOverlapPercentage,10
;   horizontalSizeCompensation,0
G90
M82
M106 S0
M140 S70
M190 S70
M104 S210 T0
M109 S210 T0
G28 X0 Y0 ; home X and Y axes
 G29 ; probe Z
G92 E0
G1 E-1.0000 F1800
G1 Z0.180 F1002
; layer 1, Z = 0.18
T0
; tool H0.200 W0.400
; skirt
G1 X8.977 Y8.095 F4200
G1 E0.0000 F540
G92 E0
G1 X9.394 Y7.678 E0.0196 F1350
G1 X9.443 Y7.634 E0.0218
G1 X10.548 Y6.787 E0.0681
G1 X10.602 Y6.750 E0.0703
G1 X11.113 Y6.456 E0.0899
G1 X11.172 Y6.427 E0.0921
G1 X12.458 Y5.894 E0.1384
G1 X12.520 Y5.873 E0.1406
G1 X13.090 Y5.720 E0.1602
G1 X13.154 Y5.707 E0.1623
G1 X14.513 Y5.528 E0.2079
G1 X14.545 Y5.525 E0.2090
G1 X14.839 Y5.506 E0.2188
G1 X14.872 Y5.505 E0.2199
G1 X114.916 Y5.505 E3.5474
G1 X114.949 Y5.506 E3.5485
G1 X115.243 Y5.525 E3.5583
G1 X115.276 Y5.528 E3.5594
G1 X116.635 Y5.707 E3.6050
G1 X116.699 Y5.720 E3.6072
G1 X117.269 Y5.873 E3.6268
G1 X117.331 Y5.894 E3.6289
G1 X118.617 Y6.427 E3.6753
G1 X118.676 Y6.456 E3.6774
G1 X119.186 Y6.750 E3.6970
G1 X119.241 Y6.787 E3.6992
G1 X120.345 Y7.634 E3.7455
G1 X120.395 Y7.678 E3.7477
G1 X120.812 Y8.095 E3.7673
G1 X120.855 Y8.144 E3.7695
G1 X121.702 Y9.248 E3.8158
G1 X121.739 Y9.303 E3.8180
G1 X122.034 Y9.814 E3.8376
G1 X122.063 Y9.872 E3.8398
G1 X122.595 Y11.158 E3.8861
G1 X122.616 Y11.220 E3.8883
G1 X122.769 Y11.790 E3.9079
G1 X122.782 Y11.854 E3.9101
G1 X122.961 Y13.214 E3.9556
G1 X122.964 Y13.246 E3.9567
G1 X122.983 Y13.540 E3.9665
G1 X122.984 Y13.573 E3.9676
G1 X122.984 Y83.617 E6.2973
G1 X122.983 Y83.650 E6.2984
G1 X122.964 Y83.944 E6.3082
G1 X122.961 Y83.976 E6.3093
G1 X122.782 Y85.335 E6.3549
G1 X122.769 Y85.400 E6.3571
G1 X122.616 Y85.969 E6.3767
G1 X122.595 Y86.031 E6.3788
G1 X122.063 Y87.318 E6.4252
G1 X122.034 Y87.376 E6.4273
G1 X121.739 Y87.887 E6.4469
G1 X121.702 Y87.942 E6.4491
G1 X120.855 Y89.046 E6.4954
G1 X120.812 Y89.095 E6.4976
G1 X120.395 Y89.512 E6.5172
G1 X120.345 Y89.555 E6.5194
G1 X119.241 Y90.403 E6.5657
G1 X119.186 Y90.439 E6.5679
G1 X118.676 Y90.734 E6.5875
G1 X118.617 Y90.763 E6.5897
G1 X117.331 Y91.296 E6.6360
G1 X117.269 Y91.317 E6.6382
G1 X116.699 Y91.470 E6.6578
G1 X116.635 Y91.482 E6.6600
G1 X115.276 Y91.661 E6.7056
G1 X115.243 Y91.665 E6.7066
G1 X114.949 Y91.684 E6.7164
G1 X114.916 Y91.685 E6.7175
G1 X14.872 Y91.685 E10.0450
G1 X14.839 Y91.684 E10.0461
G1 X14.546 Y91.665 E10.0559
G1 X14.513 Y91.661 E10.0570
G1 X13.154 Y91.482 E10.1026
G1 X13.090 Y91.470 E10.1048
G1 X12.520 Y91.317 E10.1244
G1 X12.458 Y91.296 E10.1266
G1 X11.172 Y90.763 E10.1729
G1 X11.113 Y90.734 E10.1750
G1 X10.602 Y90.439 E10.1947
G1 X10.548 Y90.403 E10.1968
G1 X9.443 Y89.555 E10.2431
G1 X9.394 Y89.512 E10.2453
G1 X8.977 Y89.095 E10.2649
G1 X8.934 Y89.046 E10.2671
G1 X8.086 Y87.942 E10.3134
G1 X8.050 Y87.887 E10.3156
G1 X7.755 Y87.376 E10.3352
G1 X7.726 Y87.318 E10.3374
G1 X7.193 Y86.031 E10.3837
G1 X7.172 Y85.969 E10.3859
G1 X7.020 Y85.400 E10.4055
G1 X7.007 Y85.335 E10.4077
G1 X6.828 Y83.976 E10.4533
G1 X6.825 Y83.944 E10.4543
G1 X6.805 Y83.650 E10.4641
G1 X6.804 Y83.617 E10.4652
G1 X6.804 Y13.573 E12.7949
G1 X6.805 Y13.540 E12.7960
G1 X6.825 Y13.246 E12.8058
G1 X6.828 Y13.214 E12.8069
G1 X7.007 Y11.854 E12.8525
G1 X7.020 Y11.790 E12.8547
G1 X7.172 Y11.220 E12.8743
G1 X7.193 Y11.158 E12.8765
G1 X7.726 Y9.872 E12.9228
G1 X7.755 Y9.814 E12.9249
G1 X8.050 Y9.303 E12.9446
G1 X8.086 Y9.248 E12.9467
G1 X8.934 Y8.144 E12.9930
G1 X8.977 Y8.095 E12.9952
G1 X9.269 Y8.368 F4200
G92 E0
G1 X9.668 Y7.970 E0.0187 F1350
G1 X9.697 Y7.944 E0.0201
G1 X10.781 Y7.112 E0.0655
G1 X10.813 Y7.090 E0.0668
G1 X11.302 Y6.809 E0.0855
G1 X11.337 Y6.791 E0.0868
G1 X12.599 Y6.268 E0.1323
G1 X12.636 Y6.256 E0.1336
G1 X13.180 Y6.110 E0.1523
G1 X13.219 Y6.102 E0.1536
G1 X14.559 Y5.926 E0.1986
G1 X14.578 Y5.924 E0.1992
G1 X14.859 Y5.906 E0.2086
G1 X14.879 Y5.905 E0.2092
G1 X114.910 Y5.905 E3.5363
G1 X114.930 Y5.906 E3.5370
G1 X115.210 Y5.924 E3.5463
G1 X115.230 Y5.926 E3.5470
G1 X116.570 Y6.102 E3.5919
G1 X116.608 Y6.110 E3.5932
G1 X117.153 Y6.256 E3.6120
G1 X117.190 Y6.268 E3.6133
G1 X118.452 Y6.791 E3.6587
G1 X118.487 Y6.809 E3.6600
G1 X118.975 Y7.090 E3.6788
G1 X119.008 Y7.112 E3.6801
G1 X120.091 Y7.944 E3.7255
G1 X120.121 Y7.970 E3.7268
G1 X120.520 Y8.368 E3.7455
G1 X120.545 Y8.398 E3.7469
G1 X121.377 Y9.481 E3.7923
G1 X121.399 Y9.514 E3.7936
G1 X121.681 Y10.002 E3.8123
G1 X121.698 Y10.037 E3.8136
G1 X122.221 Y11.299 E3.8591
G1 X122.233 Y11.337 E3.8604
G1 X122.379 Y11.881 E3.8791
G1 X122.387 Y11.920 E3.8804
G1 X122.563 Y13.259 E3.9254
G1 X122.565 Y13.279 E3.9260
G1 X122.584 Y13.560 E3.9354
G1 X122.584 Y13.579 E3.9361
G1 X122.584 Y83.610 E6.2653
G1 X122.584 Y83.630 E6.2659
G1 X122.565 Y83.911 E6.2753
G1 X122.563 Y83.931 E6.2760
G1 X122.387 Y85.270 E6.3209
G1 X122.379 Y85.309 E6.3222
G1 X122.233 Y85.853 E6.3410
G1 X122.221 Y85.890 E6.3423
G1 X121.698 Y87.152 E6.3877
G1 X121.681 Y87.188 E6.3890
G1 X121.399 Y87.676 E6.4078
G1 X121.377 Y87.708 E6.4091
G1 X120.545 Y88.792 E6.4545
G1 X120.520 Y88.822 E6.4558
G1 X120.121 Y89.220 E6.4745
G1 X120.091 Y89.246 E6.4759
G1 X119.008 Y90.078 E6.5213
G1 X118.975 Y90.099 E6.5226
G1 X118.487 Y90.381 E6.5413
G1 X118.452 Y90.399 E6.5426
G1 X117.190 Y90.921 E6.5881
G1 X117.153 Y90.934 E6.5894
G1 X116.608 Y91.080 E6.6081
G1 X116.570 Y91.088 E6.6094
G1 X115.230 Y91.264 E6.6544
G1 X115.210 Y91.266 E6.6550
G1 X114.930 Y91.284 E6.6644
G1 X114.910 Y91.285 E6.6650
G1 X14.879 Y91.285 E9.9921
G1 X14.859 Y91.284 E9.9927
G1 X14.578 Y91.266 E10.0021
G1 X14.559 Y91.264 E10.0028
G1 X13.219 Y91.088 E10.0477
G1 X13.181 Y91.080 E10.0490
G1 X12.636 Y90.934 E10.0678
G1 X12.599 Y90.921 E10.0691
G1 X11.337 Y90.399 E10.1145
G1 X11.302 Y90.381 E10.1158
G1 X10.813 Y90.099 E10.1346
G1 X10.781 Y90.078 E10.1359
G1 X9.697 Y89.246 E10.1813
G1 X9.668 Y89.220 E10.1826
G1 X9.269 Y88.822 E10.2013
G1 X9.243 Y88.792 E10.2027
G1 X8.412 Y87.708 E10.2481
G1 X8.390 Y87.676 E10.2494
G1 X8.108 Y87.188 E10.2681
G1 X8.091 Y87.152 E10.2694
G1 X7.568 Y85.890 E10.3149
G1 X7.555 Y85.853 E10.3162
G1 X7.409 Y85.309 E10.3349
G1 X7.402 Y85.270 E10.3362
G1 X7.225 Y83.931 E10.3812
G1 X7.223 Y83.911 E10.3818
G1 X7.205 Y83.630 E10.3912
G1 X7.204 Y83.610 E10.3918
G1 X7.204 Y13.579 E12.7211
G1 X7.205 Y13.560 E12.7217
G1 X7.223 Y13.279 E12.7311
G1 X7.225 Y13.259 E12.7318
G1 X7.402 Y11.920 E12.7767
G1 X7.409 Y11.881 E12.7780
G1 X7.555 Y11.337 E12.7968
G1 X7.568 Y11.299 E12.7981
G1 X8.091 Y10.037 E12.8435
G1 X8.108 Y10.002 E12.8448
G1 X8.390 Y9.514 E12.8635
G1 X8.412 Y9.481 E12.8649
G1 X9.243 Y8.398 E12.9103
G1 X9.269 Y8.368 E12.9116
G1 X9.561 Y8.642 F4200
G92 E0
G1 X9.941 Y8.262 E0.0179 F1350
G1 X9.951 Y8.253 E0.0183
G1 X11.014 Y7.438 E0.0629
G1 X11.025 Y7.430 E0.0633
G1 X11.490 Y7.162 E0.0812
G1 X11.502 Y7.156 E0.0816
G1 X12.740 Y6.643 E0.1262
G1 X12.752 Y6.639 E0.1266
G1 X13.271 Y6.500 E0.1445
G1 X13.284 Y6.497 E0.1449
G1 X14.604 Y6.323 E0.1892
G1 X14.611 Y6.323 E0.1894
G1 X14.879 Y6.305 E0.1984
G1 X14.885 Y6.305 E0.1986
G1 X114.903 Y6.305 E3.5252
G1 X114.910 Y6.305 E3.5254
G1 X115.178 Y6.323 E3.5343
G1 X115.184 Y6.323 E3.5346
G1 X116.504 Y6.497 E3.5788
G1 X116.517 Y6.500 E3.5793
G1 X117.036 Y6.639 E3.5972
G1 X117.049 Y6.643 E3.5976
G1 X118.287 Y7.156 E3.6422
G1 X118.298 Y7.162 E3.6426
G1 X118.764 Y7.430 E3.6605
G1 X118.775 Y7.437 E3.6609
G1 X119.838 Y8.253 E3.7055
G1 X119.847 Y8.262 E3.7059
G1 X120.227 Y8.642 E3.7238
G1 X120.236 Y8.652 E3.7242
G1 X121.052 Y9.715 E3.7688
G1 X121.059 Y9.725 E3.7692
G1 X121.328 Y10.191 E3.7871
G1 X121.334 Y10.203 E3.7875
G1 X121.846 Y11.440 E3.8321
G1 X121.850 Y11.453 E3.8325
G1 X121.990 Y11.972 E3.8504
G1 X121.992 Y11.985 E3.8508
G1 X122.166 Y13.305 E3.8951
G1 X122.167 Y13.311 E3.8953
G1 X122.184 Y13.579 E3.9043
G1 X122.184 Y13.586 E3.9045
G1 X122.184 Y83.604 E6.2333
G1 X122.184 Y83.610 E6.2335
G1 X122.167 Y83.878 E6.2424
G1 X122.166 Y83.885 E6.2426
G1 X121.992 Y85.205 E6.2869
G1 X121.990 Y85.218 E6.2874
G1 X121.850 Y85.737 E6.3052
G1 X121.846 Y85.749 E6.3057
G1 X121.334 Y86.987 E6.3502
G1 X121.328 Y86.999 E6.3507
G1 X121.059 Y87.464 E6.3686
G1 X121.052 Y87.475 E6.3690
G1 X120.236 Y88.538 E6.4136
G1 X120.227 Y88.548 E6.4140
G1 X119.847 Y88.928 E6.4319
G1 X119.838 Y88.937 E6.4323
G1 X118.775 Y89.752 E6.4769
G1 X118.764 Y89.760 E6.4773
G1 X118.298 Y90.028 E6.4952
G1 X118.287 Y90.034 E6.4956
G1 X117.049 Y90.547 E6.5402
G1 X117.036 Y90.551 E6.5406
G1 X116.517 Y90.690 E6.5585
G1 X116.504 Y90.693 E6.5589
G1 X115.184 Y90.866 E6.6032
G1 X115.178 Y90.867 E6.6034
G1 X114.910 Y90.885 E6.6124
G1 X114.903 Y90.885 E6.6126
G1 X14.885 Y90.885 E9.9392
G1 X14.879 Y90.885 E9.9394
G1 X14.611 Y90.867 E9.9483
G1 X14.604 Y90.866 E9.9485
G1 X13.284 Y90.693 E9.9928
G1 X13.271 Y90.690 E9.9933
G1 X12.752 Y90.551 E10.0111
G1 X12.740 Y90.547 E10.0116
G1 X11.502 Y90.034 E10.0561
G1 X11.490 Y90.028 E10.0566
G1 X11.025 Y89.760 E10.0745
G1 X11.014 Y89.752 E10.0749
G1 X9.951 Y88.937 E10.1195
G1 X9.941 Y88.928 E10.1199
G1 X9.561 Y88.548 E10.1378
G1 X9.553 Y88.538 E10.1382
G1 X8.737 Y87.475 E10.1828
G1 X8.730 Y87.464 E10.1832
G1 X8.461 Y86.999 E10.2011
G1 X8.455 Y86.987 E10.2015
G1 X7.942 Y85.749 E10.2461
G1 X7.938 Y85.737 E10.2465
G1 X7.799 Y85.218 E10.2644
G1 X7.797 Y85.205 E10.2648
G1 X7.623 Y83.885 E10.3091
G1 X7.622 Y83.878 E10.3093
G1 X7.605 Y83.610 E10.3182
G1 X7.604 Y83.604 E10.3185
G1 X7.604 Y13.586 E12.6473
G1 X7.605 Y13.579 E12.6475
G1 X7.622 Y13.311 E12.6564
G1 X7.623 Y13.305 E12.6566
G1 X7.797 Y11.985 E12.7009
G1 X7.799 Y11.972 E12.7014
G1 X7.938 Y11.453 E12.7192
G1 X7.942 Y11.440 E12.7197
G1 X8.455 Y10.203 E12.7642
G1 X8.461 Y10.191 E12.7647
G1 X8.730 Y9.725 E12.7825
G1 X8.737 Y9.715 E12.7830
G1 X9.553 Y8.652 E12.8275
G1 X9.561 Y8.642 E12.8280
G92 E0
G1 E-1.0000 F1800
; inner perimeter
G1 X13.149 Y11.850 F4200
G1 E0.0000 F1800
G92 E0
G1 X13.660 Y11.457 E0.0214 F1215
G1 X14.255 Y11.211 E0.0429
G1 X15.059 Y11.105 E0.0698
G1 X114.730 Y11.105 E3.3849
G1 X115.533 Y11.211 E3.4118
G1 X116.128 Y11.457 E3.4333
G1 X116.640 Y11.850 E3.4547
G1 X117.032 Y12.361 E3.4761
G1 X117.279 Y12.956 E3.4976
G1 X117.384 Y13.759 E3.5245
G1 X117.384 Y83.430 E5.8418
G1 X117.279 Y84.234 E5.8687
G1 X117.032 Y84.829 E5.8902
G1 X116.640 Y85.340 E5.9116
G1 X116.128 Y85.733 E5.9330
G1 X115.533 Y85.979 E5.9545
G1 X114.730 Y86.085 E5.9814
G1 X15.059 Y86.085 E9.2965
G1 X14.255 Y85.979 E9.3234
G1 X13.660 Y85.733 E9.3449
G1 X13.149 Y85.340 E9.3663
G1 X12.757 Y84.829 E9.3877
G1 X12.510 Y84.234 E9.4092
G1 X12.404 Y83.430 E9.4361
G1 X12.404 Y13.759 E11.7534
G1 X12.510 Y12.956 E11.7803
G1 X12.757 Y12.361 E11.8018
G1 X13.149 Y11.850 E11.8232
; outer perimeter
G1 X12.864 Y11.564 F4200
G92 E0
G1 X13.458 Y11.108 E0.0249 F1080
G1 X14.151 Y10.821 E0.0499
G1 X15.033 Y10.705 E0.0794
G1 X114.756 Y10.705 E3.3963
G1 X115.638 Y10.821 E3.4258
G1 X116.330 Y11.108 E3.4508
G1 X116.925 Y11.564 E3.4757
G1 X117.381 Y12.159 E3.5006
G1 X117.668 Y12.852 E3.5256
G1 X117.784 Y13.733 E3.5551
G1 X117.784 Y83.457 E5.8742
G1 X117.668 Y84.338 E5.9037
G1 X117.381 Y85.031 E5.9287
G1 X116.925 Y85.626 E5.9536
G1 X116.330 Y86.082 E5.9785
G1 X115.638 Y86.369 E6.0035
